svg/logo/carplay_fill.svg

<?xml version="1.0" encoding="UTF-8"?>
<svg width="24px" height="24px" viewBox="0 0 24 24" version="1.1" xmlns="http://www.w3.org/2000/svg" xmlns:xlink="http://www.w3.org/1999/xlink">
    <title>carplay_fill</title>
    <g id="页面-1" stroke="none" stroke-width="1" fill="none" fill-rule="evenodd">
        <g id="Logo" transform="translate(0.000000, -232.000000)" fill-rule="nonzero">
            <g id="carplay_fill" transform="translate(0.000000, 232.000000)">
                 <path d="M24,0 L24,24 L0,24 L0,0 L24,0 Z M12.5934901,23.257841 L12.5819402,23.2595131 L12.5108777,23.2950439 L12.4918791,23.2987469 L12.4918791,23.2987469 L12.4767152,23.2950439 L12.4056548,23.2595131 C12.3958229,23.2563662 12.3870493,23.2590235 12.3821421,23.2649074 L12.3780323,23.275831 L12.360941,23.7031097 L12.3658947,23.7234994 L12.3769048,23.7357139 L12.4804777,23.8096931 L12.4953491,23.8136134 L12.4953491,23.8136134 L12.5071152,23.8096931 L12.6106902,23.7357139 L12.6232938,23.7196733 L12.6232938,23.7196733 L12.6266527,23.7031097 L12.609561,23.275831 C12.6075724,23.2657013 12.6010112,23.2592993 12.5934901,23.257841 L12.5934901,23.257841 Z M12.8583906,23.1452862 L12.8445485,23.1473072 L12.6598443,23.2396597 L12.6498822,23.2499052 L12.6498822,23.2499052 L12.6471943,23.2611114 L12.6650943,23.6906389 L12.6699349,23.7034178 L12.6699349,23.7034178 L12.678386,23.7104931 L12.8793402,23.8032389 C12.8914285,23.8068999 12.9022333,23.8029875 12.9078286,23.7952264 L12.9118235,23.7811639 L12.8776777,23.1665331 C12.8752882,23.1545897 12.8674102,23.1470016 12.8583906,23.1452862 L12.8583906,23.1452862 Z M12.1430473,23.1473072 C12.1332178,23.1423925 12.1221763,23.1452606 12.1156365,23.1525954 L12.1099173,23.1665331 L12.0757714,23.7811639 C12.0751323,23.7926639 12.0828099,23.8018602 12.0926481,23.8045676 L12.108256,23.8032389 L12.3092106,23.7104931 L12.3186497,23.7024347 L12.3186497,23.7024347 L12.3225043,23.6906389 L12.340401,23.2611114 L12.337245,23.2485176 L12.337245,23.2485176 L12.3277531,23.2396597 L12.1430473,23.1473072 Z" id="MingCute" fill-rule="nonzero"></path>
                <path d="M12,2 C14.5605,2 16.8984,2.96367 18.6669,4.54655 C19.0784,4.91487 19.1135,5.54707 18.7451,5.95859 C18.3768,6.37012 17.7446,6.40514 17.3331,6.03682 C15.9171,4.76945 14.0496,4 12,4 C7.58172,4 4,7.58172 4,12 C4,16.4183 7.58172,20 12,20 C14.0496,20 15.9171,19.2306 17.3331,17.9632 C17.7446,17.5949 18.3768,17.6299 18.7451,18.0414 C19.1135,18.4529 19.0784,19.0851 18.6669,19.4535 C16.8984,21.0363 14.5605,22 12,22 C6.47715,22 2,17.5228 2,12 C2,6.47715 6.47715,2 12,2 Z M8.96449,8.65028 C9.0612,7.85899 9.88591,7.3848 10.6179,7.69697 L10.9432764,7.83954751 L10.9432764,7.83954751 L11.3820844,8.04213635 L11.3820844,8.04213635 L11.731625,8.21090375 L11.731625,8.21090375 L12.1225563,8.40689568 L12.1225563,8.40689568 L12.5512688,8.63033328 L12.5512688,8.63033328 L13.0141531,8.88143768 L13.0141531,8.88143768 L13.5076,9.16043 L13.5076,9.16043 L13.7566378,9.3057382 L13.7566378,9.3057382 L14.2255344,9.58776808 L14.2255344,9.58776808 L14.6541787,9.85565057 L14.6541787,9.85565057 L15.2181375,10.2238637 L15.2181375,10.2238637 L15.6824388,10.5420288 L15.6824388,10.5420288 L16.1370579,10.8695053 C16.1667977,10.8915584 16.1944563,10.9122125 16.22,10.9314 C16.8553,11.4084 16.8591,12.3595 16.2213,12.8396 L15.9375049,13.0486312 L15.9375049,13.0486312 L15.5453314,13.3254945 L15.5453314,13.3254945 L15.0488098,13.6602075 L15.0488098,13.6602075 L14.6618145,13.9105585 L14.6618145,13.9105585 L14.2314275,14.1792259 L14.2314275,14.1792259 L13.7588431,14.4632519 C13.6766289,14.5117051 13.5927063,14.560675 13.5071,14.6101 L13.0086469,14.8920572 L13.0086469,14.8920572 L12.5430438,15.1449016 L12.5430438,15.1449016 L12.11345,15.3690795 L12.11345,15.3690795 L11.723025,15.5650375 L11.723025,15.5650375 L11.21774,15.8070388 L11.21774,15.8070388 L10.8183563,15.9880568 L10.8183563,15.9880568 L10.6162,16.0756 L10.6162,16.0756 C9.88271,16.3874 9.06102,15.9105 8.96459,15.1219 L8.91059828,14.6232891 L8.91059828,14.6232891 L8.88093975,14.2891873 L8.88093975,14.2891873 L8.83876123,13.6901241 L8.83876123,13.6901241 L8.81510497,13.2296672 L8.81510497,13.2296672 L8.79735747,12.7236987 L8.79735747,12.7236987 L8.78752179,12.1750932 L8.78752179,12.1750932 L8.78752179,11.5964521 L8.78752179,11.5964521 L8.79734567,11.0481072 L8.79734567,11.0481072 L8.81507573,10.5423548 L8.81507573,10.5423548 L8.83871087,10.0820642 L8.83871087,10.0820642 L8.8808582,9.4831458 L8.8808582,9.4831458 L8.95228032,8.75290624 C8.95653496,8.71618555 8.96061875,8.68195687 8.96449,8.65028 Z" id="形状" fill="#09244B"></path>
            </g>
        </g>
    </g>
</svg>

<svg xmlns="http://www.w3.org/2000/svg" width="24" height="24"><g fill="none" fill-rule="nonzero"><path d="M24 0v24H0V0h24ZM12.593 23.258l-.011.002-.071.035-.02.004-.014-.004-.071-.035c-.01-.004-.019-.001-.024.005l-.004.01-.017.428.005.02.01.013.104.074.015.004.012-.004.104-.074.012-.016.004-.017-.017-.427c-.002-.01-.009-.017-.017-.018Zm.265-.113-.013.002-.185.093-.01.01-.003.011.018.43.005.012.008.007.201.093c.012.004.023 0 .029-.008l.004-.014-.034-.614c-.003-.012-.01-.02-.02-.022Zm-.715.002a.023.023 0 0 0-.027.006l-.006.014-.034.614c0 .012.007.02.017.024l.015-.002.201-.093.01-.008.004-.011.017-.43-.003-.012-.01-.01-.184-.092Z"/><path fill="#09244B" d="M12 2c2.56 0 4.898.964 6.667 2.547a1 1 0 1 1-1.334 1.49 8 8 0 1 0 0 11.926 1 1 0 1 1 1.334 1.49A9.967 9.967 0 0 1 12 22C6.477 22 2 17.523 2 12S6.477 2 12 2ZM8.964 8.65a1.192 1.192 0 0 1 1.654-.953l.325.143.44.202.349.169.39.196.43.223.462.251.494.28.249.145.469.282.428.268.564.368.464.318.455.328.083.061c.635.477.64 1.429.001 1.909l-.283.209-.393.276-.496.335-.387.25-.43.27-.473.283c-.082.049-.166.098-.252.147l-.498.282-.466.253-.43.224-.39.196-.505.242-.4.181-.202.088a1.192 1.192 0 0 1-1.651-.954l-.054-.499-.03-.334-.042-.599-.024-.46-.018-.506-.01-.549v-.579l.01-.548.018-.506.024-.46.042-.599.071-.73.012-.103Z"/></g></svg>
